X:1
T:[ID 2-38a]
T:[ID 2-38a]
T:Bezeichnung standardisiert: Menuett Men\"uet 3.
T:Urheber unbekannt Datum in der hier transkribierten schriftlichen Quelle: 1767
C:Urheber unbekannt
C:Datum in der hier transkribierten schriftlichen Quelle: 1767
L:1/8
M:3/4
K:C
V:1 treble 
V:1
 Ec e2 e2 |{f} e4 f2 | e2 cdef | g2 G4 | Gc e2 e2 | GB e2 e2 | G2 D2 C2 | B,6 :: B,G B2 B2 | %9
 GB d4 | DG B2 B2 | Ed f4 | e2 d2 c2 | BA G2 c2 | E2 GFED |{D} E6 :| %16

